tools/download-figma-icons/icons/outlined-large/moving-truck.svg

<svg width="64" height="64" viewBox="0 0 64 64" fill="none" xmlns="http://www.w3.org/2000/svg">
<path fill-rule="evenodd" clip-rule="evenodd" d="M36.6071 4H4.39286C1.96675 4 0 6.01472 0 8.5V42V45V53.356C0 55.9213 1.95367 57.9666 4.36364 57.9666L8.14379 57.9689C8.82664 61.4078 11.8606 64 15.5 64C19.1363 64 22.1681 61.4122 22.8544 57.9778L41.1478 57.9888C41.8384 61.4178 44.8676 64 48.5 64C52.1292 64 55.1564 61.4222 55.8504 57.9977L59.6364 58C62.0463 58 64 55.9213 64 53.356V42H63.9869V33.0697C63.9869 31.5806 63.2503 30.188 62.0195 29.35L59.6665 27.7479C59.4305 27.5872 59.2452 27.3624 59.1325 27.1L55.1054 17.7241C54.3955 16.0713 52.7695 15 50.9707 15H41V8.5C41 6.01472 39.0333 4 36.6071 4ZM41 18V42H60.9869V33.0697C60.9869 32.5733 60.7414 32.1091 60.3311 31.8298L57.9781 30.2277C57.2699 29.7455 56.7141 29.0712 56.376 28.2839L52.3489 18.908C52.1123 18.3571 51.5703 18 50.9707 18H41ZM44 56.5C44 55.974 44.0902 55.4692 44.2561 55C44.8738 53.2522 46.5407 52 48.5 52C50.4593 52 52.1262 53.2522 52.7439 55C52.9098 55.4692 53 55.974 53 56.5C53 57.0244 52.9103 57.5278 52.7454 57.9958C52.1288 59.7458 50.4609 61 48.5 61C46.5372 61 44.8679 59.7434 44.2528 57.9907C44.089 57.5242 44 57.0225 44 56.5ZM48.5 49C52.1284 49 55.1551 51.5766 55.85 55H59.5624C60.3563 55 61 54.2932 61 53.4214V45H41H3V53.4214C3 54.2932 3.64365 55 4.43763 55H8.15003C8.84493 51.5766 11.8716 49 15.5 49C19.1284 49 22.1551 51.5766 22.85 55H41.15C41.8449 51.5766 44.8716 49 48.5 49ZM11.2561 55C11.0902 55.4692 11 55.974 11 56.5C11 57.0151 11.0865 57.5099 11.2459 57.9708C11.8553 59.7338 13.5298 61 15.5 61C17.4683 61 19.1415 59.7363 19.7524 57.9759C19.9128 57.5136 20 57.017 20 56.5C20 55.974 19.9098 55.4692 19.7439 55C19.1262 53.2522 17.4593 52 15.5 52C13.5407 52 11.8738 53.2522 11.2561 55ZM38 42H3V8.5C3 7.67157 3.65292 7 4.45833 7H36.5417C37.3471 7 38 7.67157 38 8.5V42ZM29.5 24.5869L30.9602 26.0607C31.5459 26.6464 32.4957 26.6464 33.0815 26.0607C33.6673 25.4749 33.6673 24.5251 33.0815 23.9393L21.0607 11.9185C20.4749 11.3327 19.5251 11.3327 18.9393 11.9185L6.91852 23.9393C6.33274 24.5251 6.33274 25.4749 6.91852 26.0607C7.50431 26.6464 8.45406 26.6464 9.03985 26.0607L10.5 24.5869V34.5C10.5 35.3284 11.1716 36 12 36H28C28.8284 36 29.5 35.3284 29.5 34.5V24.5869ZM26.5 21.559V33H13.5V21.559L20 14.9985L26.5 21.559Z" fill="black"/>
</svg>

<svg width="64" height="64" viewBox="0 0 64 64" fill="none" xmlns="http://www.w3.org/2000/svg"><path fill-rule="evenodd" clip-rule="evenodd" d="M36.607 4H4.393C1.967 4 0 6.015 0 8.5v44.856c0 2.565 1.954 4.61 4.364 4.61l3.78.003a7.502 7.502 0 0 0 14.71.009l18.294.01a7.502 7.502 0 0 0 14.702.01l3.786.002C62.046 58 64 55.921 64 53.356V42h-.013v-8.93a4.5 4.5 0 0 0-1.968-3.72l-2.352-1.602a1.5 1.5 0 0 1-.535-.648l-4.027-9.376A4.5 4.5 0 0 0 50.971 15H41V8.5C41 6.015 39.033 4 36.607 4ZM41 18v24h19.987v-8.93a1.5 1.5 0 0 0-.656-1.24l-2.353-1.602a4.5 4.5 0 0 1-1.602-1.944l-4.027-9.376A1.5 1.5 0 0 0 50.97 18H41Zm3 38.5a4.502 4.502 0 1 1 8.745 1.496A4.502 4.502 0 0 1 44 56.5Zm4.5-7.5a7.503 7.503 0 0 1 7.35 6h3.712c.794 0 1.438-.707 1.438-1.579V45H3v8.421C3 54.293 3.644 55 4.438 55H8.15a7.503 7.503 0 0 1 14.7 0h18.3a7.503 7.503 0 0 1 7.35-6Zm-37.244 6A4.49 4.49 0 0 0 11 56.5a4.502 4.502 0 1 0 8.744-1.5 4.502 4.502 0 0 0-8.488 0ZM38 42H3V8.5C3 7.672 3.653 7 4.458 7h32.084C37.347 7 38 7.672 38 8.5V42Zm-8.5-17.413 1.46 1.474a1.5 1.5 0 0 0 2.121-2.122l-12.02-12.02a1.5 1.5 0 0 0-2.122 0L6.92 23.938a1.5 1.5 0 0 0 2.12 2.122l1.461-1.474V34.5A1.5 1.5 0 0 0 12 36h16a1.5 1.5 0 0 0 1.5-1.5v-9.913Zm-3-3.028V33h-13V21.559l6.5-6.56 6.5 6.56Z" fill="currentColor"/></svg>
